icon-themes/sifr_svg/cmd/sc_matchgroup.svg

<svg viewBox="0 0 16 16" xmlns="http://www.w3.org/2000/svg"><path d="m5 1a3 3 0 0 0 -3 3v2a1 1 0 0 1 -1 1h-1v3h1a1 1 0 0 1 1 1v2a3 3 0 0 0 3 3h2v-2h-2a1 1 0 0 1 -1-1v-2a3 3 0 0 0 -1.3457031-2.5 3 3 0 0 0 1.3457031-2.5v-2a1 1 0 0 1 1-1h2v-2zm4 0v2h2a1 1 0 0 1 1 1v2a3 3 0 0 0 1.345703 2.5 3 3 0 0 0 -1.345703 2.5v2a1 1 0 0 1 -1 1h-2v2h2a3 3 0 0 0 3-3v-2a1 1 0 0 1 1-1h1v-3h-1a1 1 0 0 1 -1-1v-2a3 3 0 0 0 -3-3z" fill="#555753"/></svg>

<svg xmlns="http://www.w3.org/2000/svg" viewBox="0 0 16 16">
  <path
     style="fill:#555753"
     d="M 5 1 A 3 3 0 0 0 2 4 L 2 6 A 1 1 0 0 1 1 7 L 0 7 L 0 10 L 1 10 A 1 1 0 0 1 2 11 L 2 13 A 3 3 0 0 0 5 16 L 7 16 L 7 14 L 5 14 A 1 1 0 0 1 4 13 L 4 11 A 3 3 0 0 0 2.6542969 8.5 A 3 3 0 0 0 4 6 L 4 4 A 1 1 0 0 1 5 3 L 7 3 L 7 1 L 5 1 z M 9 1 L 9 3 L 11 3 A 1 1 0 0 1 12 4 L 12 6 A 3 3 0 0 0 13.345703 8.5 A 3 3 0 0 0 12 11 L 12 13 A 1 1 0 0 1 11 14 L 9 14 L 9 16 L 11 16 A 3 3 0 0 0 14 13 L 14 11 A 1 1 0 0 1 15 10 L 16 10 L 16 7 L 15 7 A 1 1 0 0 1 14 6 L 14 4 A 3 3 0 0 0 11 1 L 9 1 z "
     />
</svg>
